X: 32267
T: Picking Up Sticks
R: jig
M: 6/8
K: Gmajor
A|Bcd ded|cAA A2B|ABc cdc|BAG G2A|
Bcd ded|c2A- ABA|ABc cdc|BAG G2B||
|:G2G EFG|AFE D2D|G2G EFG|ABc d2c|
BAG EFG|AFE D2D|EFG FEF|1 G2B GcB:|2 G2B G2||


